X:1
T:Piano Example
C:Groove Link
M:4/4
L:1/8
Q:1/4=88
K:C
%%MIDI program 0
|: C2 E2 G2 c2 | c2 G2 E2 C2 |
   D2 F2 A2 d2 | d2 A2 F2 D2 |
   E2 G2 B2 e2 | e2 B2 G2 E2 |
   F2 A2 c2 f2 | f2 c2 A2 F2 :|
